X: 9
T: The Trip To Nenagh
R: reel
M: 4/4
L: 1/8
K: Dmix
|:d2AG (3FGA DA|ED (3FGA d=cAG|Addd A=fed|=c2Gc EcG2|
d2AG (3FGA DA|ED (3FGA d=cAG|Addd A2FA|G2EG FDD2:|
|:d2fd Adfd|gfed ^caec|d2AG FADA|(3EFG AB =cGBG|
Addd Aded|(3B^cd ef gefg|a2ea ^caec|d=cAG FDDD:|


Tune 831	Setting 22344

